X: 1362
T: I'm Ready Now
R:Reel
N:Collected by F. O'Neill
B:O'Neill's 1362
Z:Transcribed by Trish O'Neil
M:C|
L:1/8
K:D
(ed)|cAAB cded|cAGE TEDDB|cBAB cdeg|1fdec dfed:|2fdecd2||
de|f2fae2eg|fded cAAg|f2fae2eg|fdecd2de|
f2fae2eg|fded cAAg|f3f eaag|fdecd2|]


